X: 973
T: Missa Qual e il piu grande'amore Kyrie
C: Giovanni Perluigi da Palestrina
L: 1/4
M: 4/2
N: Derived from Kyrie_43.krn
V: 1 clef=treble
V: 2 clef=treble
V: 3 clef=treble
V: 4 clef=treble-8
V: 5 clef=bass
K: F
[V:1] F4A2A2 | 
[V:2] z4F4 | 
[V:3] z8 | 
[V:4] z8 | 
[V:5] z8 | 
[V:1] c2>B2AGF2 | 
[V:2] A2A2c3B | 
[V:3] z8 | 
[V:4] z4F4 | 
[V:5] z8 | 
[V:1] E2A2>G2F2- | 
[V:2] AGF2E2A2 | 
[V:3] z8 | 
[V:4] A2A2c4 | 
[V:5] z2F,2A,2A,2 | 
[V:1] F2E2F4 | 
[V:2] G2c2>B2AG | 
[V:3] z8 | 
[V:4] C4F3G | 
[V:5] C2>B,2A,G,F,E, | 
[V:1] z2G4G2 | 
[V:2] F2E2D4 | 
[V:3] z8 | 
[V:4] ABc4=B2 | 
[V:5] D,2C,2G,4 | 
[V:1] G2A2>B2c2- | 
[V:2] E2F2>G2A2- | 
[V:3] z4F,4 | 
[V:4] c8 | 
[V:5] z2F,2A,2A,2 | 
[V:1] cBAGA4 | 
[V:2] ABc4A2 | 
[V:3] A,2A,2C3D/ E/ | 
[V:4] z2F4A2 | 
[V:5] C2>B,2A,G,F,E, | 
[V:1] z4z2G2 | 
[V:2] d2G2G4 | 
[V:3] F2E2D4 | 
[V:4] A2c4=B2 | 
[V:5] D,2C,2G,4 | 
[V:1] G2G2A4- | 
[V:2] z8 | 
[V:3] E8 | 
[V:4] c4z2c2 | 
[V:5] z4A,4 | 
[V:1] A4F2D2 | 
[V:2] z4z2B2 | 
[V:3] z2F2F2F2 | 
[V:4] c2c2d4- | 
[V:5] A,2A,2B,4 | 
[V:1] d4z4 | 
[V:2] B2B2c4 | 
[V:3] G4E4 | 
[V:4] d2d2c2AB | 
[V:5] G,4A,4 | 
[V:1] z8 | 
[V:2] A4G2^F2 | 
[V:3] F4D2C2 | 
[V:4] cAdc=B2c2- | 
[V:5] F,4G,2A,2 | 
[V:1] z2G2G2G2 | 
[V:2] G2>F2E4 | 
[V:3] D4z2E2 | 
[V:4] c2=B2z2c2 | 
[V:5] G,4C3B, | 
[V:1] A2>G2FED2 | 
[V:2] z2A2A2A2 | 
[V:3] E2E2F4- | 
[V:4] c2c2d4 | 
[V:5] A,G,A,2D,4 | 
[V:1] d4z2c2 | 
[V:2] B4G4 | 
[V:3] F2D2E4 | 
[V:4] B4c4 | 
[V:5] z8 | 
[V:1] c2c2d2B2 | 
[V:2] A4F4 | 
[V:3] F2E2D2F2- | 
[V:4] A4B2d2 | 
[V:5] z8 | 
[V:1] c2>B2A4 | 
[V:2] G2c2dcc2- | 
[V:3] F2E2F3E | 
[V:4] c4F4 | 
[V:5] z8 | 
[V:1] G2G4G2 | 
[V:2] c2=B2c4- | 
[V:3] D4z2E2 | 
[V:4] G4c4 | 
[V:5] z4C,4 | 
[V:1] G2A4F2- | 
[V:2] c4A4 | 
[V:3] E2E2F4 | 
[V:4] z2A2A2A2 | 
[V:5] C,2C,2D,4 | 
[V:1] F2G4E2 | 
[V:2] z4z2c2 | 
[V:3] D4E4 | 
[V:4] B4G4 | 
[V:5] B,,4C,4 | 
[V:1] F2A2G2F2- | 
[V:2] c2c2d2B2 | 
[V:3] C2E2D4 | 
[V:4] A2c2=BAGF | 
[V:5] A,,4B,,2D,2 | 
[V:1] F2EDE4 | 
[V:2] c2G2G2G2 | 
[V:3] G4z2C2 | 
[V:4] G8 | 
[V:5] C,8 | 
[V:1] F8- | 
[V:2] ABcABcd2- | 
[V:3] C2C2D2B,2 | 
[V:4] F8 | 
[V:5] F,4B,,4- | 
[V:1] F4-F4- | 
[V:2] dcBAB4 | 
[V:3] D8 | 
[V:4] D2>E2F2G2 | 
[V:5] B,,8 | 
[V:1] F8 | 
[V:2] A8 | 
[V:3] C8 | 
[V:4] A8 | 
[V:5] F,8 | 
[V:1] z8 | 
[V:2] A4G2A2 | 
[V:3] F4E2E2 | 
[V:4] c4c2c2 | 
[V:5] F,4C,2C,2 | 
[V:1] z8 | 
[V:2] B4A2G2- | 
[V:3] F6D2 | 
[V:4] d6B2 | 
[V:5] B,,2>C,2D,2G,2 | 
[V:1] A4G2A2 | 
[V:2] G2F2E3F | 
[V:3] D4z2E2 | 
[V:4] A2>B2c4 | 
[V:5] D,4z4 | 
[V:1] B4A2G2- | 
[V:2] G4c4 | 
[V:3] D2E2F2E2- | 
[V:4] G4F2C2 | 
[V:5] z8 | 
[V:1] G2F2E4 | 
[V:2] A2A2B2AG | 
[V:3] EDD4C2 | 
[V:4] D4z4 | 
[V:5] z2A,2G,2A,2 | 
[V:1] D2>E2F2G2 | 
[V:2] F2>G2A2B2 | 
[V:3] D4z2B,2- | 
[V:4] z2d2c2d2 | 
[V:5] B,4A,2G,2- | 
[V:1] z8 | 
[V:2] G2A2G4 | 
[V:3] B,2A,2B,2C2 | 
[V:4] e2d4c2- | 
[V:5] G,2^F,2G,2E,2 | 
[V:1] z2F2E3C | 
[V:2] F4z2c2 | 
[V:3] D4G,4 | 
[V:4] c2=B2c4 | 
[V:5] D,4C,4 | 
[V:1] D2E2F4 | 
[V:2] B2>G2A2B2 | 
[V:3] z4z2D2 | 
[V:4] G4d4 | 
[V:5] z8 | 
[V:1] E2A2G3E | 
[V:2] c4d2cB | 
[V:3] C2>A,2B,2C2 | 
[V:4] A4z4 | 
[V:5] z8 | 
[V:1] F2G2A4 | 
[V:2] A2d2c3A | 
[V:3] D4z2F2 | 
[V:4] z2B2A3F | 
[V:5] z8 | 
[V:1] G2C2z4 | 
[V:2] B2A4G2 | 
[V:3] E2>C2D2E2 | 
[V:4] G2A2B4 | 
[V:5] z4G,4 | 
[V:1] z4z2c2 | 
[V:2] A4z4 | 
[V:3] F4G2FE | 
[V:4] A2d2c3A | 
[V:5] F,2>D,2E,2F,2 | 
[V:1] B2A2G2F2 | 
[V:2] z4z2c2 | 
[V:3] D2F2z2C2 | 
[V:4] B2c2d2c2 | 
[V:5] G,2F,2B,2A,2 | 
[V:1] G2c2>B2GA | 
[V:2] B2A2G4- | 
[V:3] D2F4E2 | 
[V:4] z4z2c2 | 
[V:5] G,2F,2C4 | 
[V:1] B2c4B2 | 
[V:2] G2F2G4 | 
[V:3] D2C2D4 | 
[V:4] B2A2G4 | 
[V:5] z4z2G,2 | 
[V:1] A2G2A2c2- | 
[V:2] C4z2G2- | 
[V:3] z2G2F2E2 | 
[V:4] z8 | 
[V:5] F,2E,2D,2C,2 | 
[V:1] c2=B2c4 | 
[V:2] GFD2E4 | 
[V:3] D2G2>F2E2 | 
[V:4] z4z2c2 | 
[V:5] G,4C,4 | 
[V:1] z2c4B2 | 
[V:2] F4G4 | 
[V:3] D2C2D2G2 | 
[V:4] B2A2G4 | 
[V:5] z8 | 
[V:1] A2G2>F2F2 | 
[V:2] c4z2c2- | 
[V:3] F2E2D2C2 | 
[V:4] z8 | 
[V:5] z2C2B,2A,2 | 
[V:1] G4c4 | 
[V:2] c2B2A2G2- | 
[V:3] D2>E2F2E2 | 
[V:4] z4z2c2 | 
[V:5] G,4F,2C,2 | 
[V:1] z2F2G2G2 | 
[V:2] GFF4E2 | 
[V:3] D2C2C4- | 
[V:4] B2A2G4 | 
[V:5] D,2F,2C,4 | 
[V:1] A2>B2c4 | 
[V:2] F2>G2A4 | 
[V:3] C4F4 | 
[V:4] F2A2>G2AB | 
[V:5] F,8 | 
[V:1] c8 | 
[V:2] G8 | 
[V:3] E8 | 
[V:4] c8 | 
[V:5] C,8 | 
[V:1] c4G3G | 
[V:2] A4E3E | 
[V:3] z8 | 
[V:4] F4c3c | 
[V:5] z8 | 
[V:1] G2A2G2F2 | 
[V:2] E2F2E2A2- | 
[V:3] z8 | 
[V:4] c2F2c2d2 | 
[V:5] z8 | 
[V:1] cBAGF2E2 | 
[V:2] AGcBA2G2 | 
[V:3] z8 | 
[V:4] c2FGABc2 | 
[V:5] z8 | 
[V:1] A2>B2c4 | 
[V:2] F2>G2A2B2 | 
[V:3] z4C4 | 
[V:4] F4z2A2- | 
[V:5] z4F,4 | 
[V:1] z8 | 
[V:2] c6B2 | 
[V:3] E2>E2E2F2 | 
[V:4] A2G4F2 | 
[V:5] C,2>C,2C,2D,2 | 
[V:1] z8 | 
[V:2] c2F2A4 | 
[V:3] E2D2C2F2 | 
[V:4] A2B2A2d2- | 
[V:5] C,2B,,2F,E,D,C, | 
[V:1] z4F4 | 
[V:2] z8 | 
[V:3] F2F4D2 | 
[V:4] d2c2BAAG/ F/ | 
[V:5] B,,2A,,2D,4 | 
[V:1] c2>c2c2d2 | 
[V:2] C4G3G | 
[V:3] E6D2 | 
[V:4] G2c4=B2 | 
[V:5] C,4z4 | 
[V:1] c4B4 | 
[V:2] G2A2G2F2 | 
[V:3] E2F2D3E | 
[V:4] c2F2G2B2 | 
[V:5] z8 | 
[V:1] A6G2 | 
[V:2] cBAGF2E2 | 
[V:3] F4C3B, | 
[V:4] F2>G2ABc2- | 
[V:5] z2F,4C,2 | 
[V:1] F2c2c2d2- | 
[V:2] A4G4- | 
[V:3] A,2F2E2D2 | 
[V:4] c2F2C2G2 | 
[V:5] F,G,A,B,C2=B,2 | 
[V:1] dcc4=B2 | 
[V:2] G8 | 
[V:3] E2>C2D4 | 
[V:4] C4z2G2 | 
[V:5] C4G,4 | 
[V:1] c4z4 | 
[V:2] z2G2c3B | 
[V:3] E4z2C2 | 
[V:4] c2>B2A3G | 
[V:5] C,2E,2F,4- | 
[V:1] z2c2d3c | 
[V:2] AGF4F2 | 
[V:3] F2>E2DCB,2- | 
[V:4] F2A2B3c | 
[V:5] F,4z4 | 
[V:1] B2A2G2F2- | 
[V:2] G2A2B2A2- | 
[V:3] B,2F,2G,2A,2 | 
[V:4] d6c2 | 
[V:5] z8 | 
[V:1] F2EDE2F2- | 
[V:2] A2G2A4 | 
[V:3] B,4A,4 | 
[V:4] d4c2F2 | 
[V:5] z8 | 
[V:1] F2E2F4 | 
[V:2] G2c2>B2AG | 
[V:3] z2C4F2- | 
[V:4] c2>B2AGF2- | 
[V:5] C,4F,3E, | 
[V:1] z8 | 
[V:2] F2B4A2- | 
[V:3] FED4C2 | 
[V:4] F2F2G2A2 | 
[V:5] D,C,B,,4C,2 | 
[V:1] z4z2F2 | 
[V:2] A2G2A4 | 
[V:3] F2EDC4 | 
[V:4] B4A4- | 
[V:5] D,2E,2F,4- | 
[V:1] c2>B2AGF2- | 
[V:2] F2c2>B2AG | 
[V:3] z2C2F3E | 
[V:4] A4z4 | 
[V:5] F,8 | 
[V:1] F2F2G2A2 | 
[V:2] FED4F2 | 
[V:3] DCB,4A,2 | 
[V:4] z8 | 
[V:5] z8 | 
[V:1] B2A2G2F2- | 
[V:2] G2A2B2A2 | 
[V:3] G,2F,2G,2A,2 | 
[V:4] z8 | 
[V:5] z8 | 
[V:1] F2EDE2A2 | 
[V:2] G4G2c2- | 
[V:3] B,2C2>B,2A,G, | 
[V:4] z4z2F2 | 
[V:5] z2C,2C3B, | 
[V:1] A4z4 | 
[V:2] cBAGF2E2 | 
[V:3] F,2C2D2E2 | 
[V:4] c2>B2A2G2 | 
[V:5] A,G,F,4C,2 | 
[V:1] z4z2F2 | 
[V:2] D2G4F2- | 
[V:3] F2EDC4- | 
[V:4] F2c2A3G/ F/ | 
[V:5] D,2E,2F,4 | 
[V:1] c2>B2AGF2- | 
[V:2] F2E2FGAB | 
[V:3] C2G,2A,2C2- | 
[V:4] G2c2>B2AG | 
[V:5] C,4F,4- | 
[V:1] F2C2D2E2 | 
[V:2] c2A2B2c2 | 
[V:3] C2F4E2 | 
[V:4] A4G2G2 | 
[V:5] F,4z2C,2 | 
[V:1] F2G2C2F2- | 
[V:2] A2G2F4 | 
[V:3] D2G,2A,2B,2 | 
[V:4] F2c2A2F2 | 
[V:5] D,2E,2F,2D,2 | 
[V:1] F2EDE4 | 
[V:2] c8 | 
[V:3] C8 | 
[V:4] G8 | 
[V:5] C,8 | 
[V:1] F8 |]  
[V:2] A8 |]  
[V:3] C8 |]  
[V:4] F8 |]  
[V:5] F,8 |]  

